svgs/mycloud.svg

<svg viewBox="0 0 192 192" xml:space="preserve" style="fill-rule:evenodd;clip-rule:evenodd;stroke-linejoin:round;stroke-miterlimit:2" xmlns="http://www.w3.org/2000/svg"><path d="M317.31 480.959c-7.258-8.354-17.959-13.635-29.884-13.635-21.853 0-39.595 17.742-39.595 39.595l.006.705c-9.758 6.045-16.262 16.852-16.262 29.165 0 18.923 15.363 34.286 34.286 34.286h84.003c18.923 0 34.286-15.363 34.286-34.286 0-18.923-15.363-34.286-34.286-34.286-.673 0-1.342.019-2.006.058-4.886-12.277-16.665-21.075-30.548-21.602Zm-61.102 35.123a5.721 5.721 0 0 0 3.259-5.849 28.344 28.344 0 0 1-.193-3.314c0-15.537 12.614-28.152 28.152-28.152 9.239 0 17.443 4.462 22.578 11.344a5.721 5.721 0 0 0 4.864 2.293c.372-.018.746-.027 1.122-.027 10.859 0 19.961 7.592 22.274 17.754a5.722 5.722 0 0 0 6.782 4.324 22.895 22.895 0 0 1 4.818-.509c12.607 0 22.843 10.235 22.843 22.843 0 12.607-10.236 22.843-22.843 22.843h-84.003c-12.607 0-22.843-10.236-22.843-22.843 0-9.159 5.403-17.065 13.19-20.707Z" style="fill-rule:evenodd;clip-rule:evenodd;stroke-linejoin:round;stroke-miterlimit:2" transform="translate(-226.845 -448.467) scale(1.04867)"/></svg>

<?xml version="1.0" encoding="UTF-8" standalone="no"?>
<svg
   width="100%"
   height="100%"
   viewBox="0 0 192 192"
   version="1.1"
   xml:space="preserve"
   style="fill-rule:evenodd;clip-rule:evenodd;stroke-linejoin:round;stroke-miterlimit:2;"
   id="svg2193"
   sodipodi:docname="mycloud.svg"
   inkscape:version="1.2.1 (9c6d41e410, 2022-07-14)"
   xmlns:inkscape="http://www.inkscape.org/namespaces/inkscape"
   xmlns:sodipodi="http://sodipodi.sourceforge.net/DTD/sodipodi-0.dtd"
   xmlns="http://www.w3.org/2000/svg"
   xmlns:svg="http://www.w3.org/2000/svg"><defs
   id="defs2197" /><sodipodi:namedview
   id="namedview2195"
   pagecolor="#ffffff"
   bordercolor="#000000"
   borderopacity="0.25"
   inkscape:showpageshadow="2"
   inkscape:pageopacity="0.0"
   inkscape:pagecheckerboard="0"
   inkscape:deskcolor="#d1d1d1"
   showgrid="false"
   inkscape:zoom="5.3489583"
   inkscape:cx="95.906524"
   inkscape:cy="95.906524"
   inkscape:window-width="1274"
   inkscape:window-height="1303"
   inkscape:window-x="1282"
   inkscape:window-y="36"
   inkscape:window-maximized="0"
   inkscape:current-layer="svg2193" />
    <path
   d="M317.31,480.959C310.052,472.605 299.351,467.324 287.426,467.324C265.573,467.324 247.831,485.066 247.831,506.919L247.837,507.624C238.079,513.669 231.575,524.476 231.575,536.789C231.575,555.712 246.938,571.075 265.861,571.075L349.864,571.075C368.787,571.075 384.15,555.712 384.15,536.789C384.15,517.866 368.787,502.503 349.864,502.503C349.191,502.503 348.522,502.522 347.858,502.561C342.972,490.284 331.193,481.486 317.31,480.959ZM256.208,516.082C258.441,515.038 259.754,512.681 259.467,510.233C259.339,509.145 259.274,508.04 259.274,506.919C259.274,491.382 271.888,478.767 287.426,478.767C296.665,478.767 304.869,483.229 310.004,490.111C311.143,491.637 312.966,492.497 314.868,492.404C315.24,492.386 315.614,492.377 315.99,492.377C326.849,492.377 335.951,499.969 338.264,510.131C338.96,513.186 341.983,515.114 345.046,514.455C346.599,514.121 348.211,513.946 349.864,513.946C362.471,513.946 372.707,524.181 372.707,536.789C372.707,549.396 362.471,559.632 349.864,559.632L265.861,559.632C253.254,559.632 243.018,549.396 243.018,536.789C243.018,527.63 248.421,519.724 256.208,516.082Z"
   id="path2187"
   style="fill-rule:evenodd;clip-rule:evenodd;stroke-linejoin:round;stroke-miterlimit:2"
   transform="matrix(1.04867,0,0,1.04867,-226.845,-448.467)"
   inkscape:label="mycloud" />
</svg>
